Papirus/24x24/mimetypes/application-vnd.insync.link.drive.form.svg

<?xml version="1.0" encoding="UTF-8" standalone="no"?>
<svg xmlns="http://www.w3.org/2000/svg" height="24" width="24" version="1.1">
 <path d="m5 2c-0.554 0-1 0.446-1 1v18c0 0.554 0.446 1 1 1h14c0.554 0 1-0.446 1-1v-13l-5.5-0.5-0.5-5.5z" style="fill:#13a553"/>
 <path d="m5 2c-0.554 0-1 0.446-1 1v0.5c0-0.554 0.446-1 1-1h9l5.5 5.5h0.5l-6-6z" style="opacity:0.2;fill:#ffffff"/>
 <path d="m14 2v5c0 0.5523 0.447715 1 1 1h5z" style="fill:#70c896"/>
 <rect x="10" y="12" width="7" height="1" style="fill:#ffffff"/>
 <rect x="10" y="14" width="7" height="1" style="fill:#ffffff"/>
 <rect x="10" y="16" width="7" height="1" style="fill:#ffffff"/>
 <rect style="fill:#ffffff" height="1" width="2" y="12" x="7"/>
 <rect style="fill:#ffffff" height="1" width="2" y="14" x="7"/>
 <rect style="fill:#ffffff" height="1" width="2" y="16" x="7"/>
</svg>

<?xml version="1.0" encoding="UTF-8" standalone="no"?>
<svg xmlns="http://www.w3.org/2000/svg" height="24" width="24" version="1.1">
 <path style="fill:#13a553" d="M 5,2 C 4.446,2 4,2.446 4,3 V 21 C 4,21.554 4.446,22 5,22 H 19 C 19.554,22 20,21.554 20,21 V 8 L 14.5,7.5 14,2 Z"/>
 <path d="M 5,2 C 4.446,2 4,2.446 4,3 V 3.5 C 4,2.946 4.446,2.5 5,2.5 H 14 V 2 Z" style="opacity:0.2;fill:#ffffff"/>
 <path style="fill:#70c795" d="M 14,2 V 7 C 14,7.5525 14.448,8 15,8 H 20 Z"/>
 <rect x="9" y="11" width="8" height="1" style="fill:#ffffff"/>
 <rect x="9" y="13" width="8" height="1" style="fill:#ffffff"/>
 <rect x="9" y="15" width="8" height="1" style="fill:#ffffff"/>
 <rect style="fill:#ffffff" height="1" width="1" y="11" x="7"/>
 <rect style="fill:#ffffff" height="1" width="1" y="13" x="7"/>
 <rect style="fill:#ffffff" height="1" width="1" y="15" x="7"/>
 <rect style="fill:#ffffff" height="1" width="8" y="17" x="9"/>
 <rect x="7" y="17" width="1" height="1" style="fill:#ffffff"/>
</svg>
